X:10
T:King of Sweden's March. JClw.10
M:3/4
L:1/8
Q:1/4=160
S:J.Clews MS,Stoke-upon-Tern,Shrops.1832
A:N. Shropshire
Z:Neil Brookes 2006
K:G
G,2 B>G,A,>c|B,2d>B,C>e|d2cBAG|F/G/F/E/ D/E/D/C/ B,/C/B,/A,/|!
G,2 B>G,A,>c|B,2d>B,C>e|d2D>GF>A|G6||!
b2G>bF>b|a2F>aE>a|g2E>gD>g|f>ed>ef>g|!
a2F>aE>a|g2E>gD>g|f2 g/f/e/d/ c/d/e/c/|d>e f/e/d/c/ B/c/B/A/|!
G,2 B>G,A,>c|B,2d>B,C>e|d2cBAG|F/G/F/E/ D/E/D/C/ B,/C/B,/A,/|!
G,2 B>G,A,>c|B,2d>B,C>e|d2D>GF>A|G6|]

